packages/blockchain-info-components/src/Images/img/bc-logo-circle.svg

<svg fill="none" height="72" viewBox="0 0 72 72" width="72" xmlns="http://www.w3.org/2000/svg"><circle cx="36" cy="36" fill="#0c6cf2" r="36"/><g fill="#fff"><path d="m18.5937 30.2634-1.9163 1.9163c-.5303.5095-.9523 1.1209-1.2406 1.7975-.2882.6766-.4368 1.4045-.4368 2.14 0 .7354.1486 1.4633.4368 2.1399.2883.6767.7103 1.2881 1.2406 1.7976l15.4376 15.5899c.3659.3743.7918.6848 1.26.9188v-18.8975z"/><path d="m53.4063 30.2634 1.9163 1.9163c.5303.5095.9523 1.1209 1.2406 1.7975.2882.6766.4368 1.4045.4368 2.14 0 .7354-.1486 1.4633-.4368 2.1399-.2883.6767-.7103 1.2881-1.2406 1.7976l-15.4376 15.5899c-.3659.3743-.7918.6848-1.26.9188v-18.8975z"/><path d="m49.6998 26.3522-9.66-9.6863c-.5114-.5271-1.1235-.9461-1.7998-1.2323-.6764-.2862-1.4033-.4336-2.1377-.4336s-1.4614.1474-2.1378.4336c-.6763.2862-1.2883.7052-1.7997 1.2323l-9.6863 9.6863 13.5713 6.7725z"/></g></svg>

<svg width="72" height="72" viewBox="0 0 72 72" fill="none" xmlns="http://www.w3.org/2000/svg">
<circle cx="36" cy="36" r="36" fill="#0C6CF2"/>
<path d="M18.5937 30.2634L16.6774 32.1797C16.1471 32.6892 15.7251 33.3006 15.4368 33.9772C15.1486 34.6538 15 35.3817 15 36.1172C15 36.8526 15.1486 37.5805 15.4368 38.2571C15.7251 38.9338 16.1471 39.5452 16.6774 40.0547L32.115 55.6446C32.4809 56.0189 32.9068 56.3294 33.375 56.5634V37.6659L18.5937 30.2634Z" fill="white"/>
<path d="M53.4063 30.2634L55.3226 32.1797C55.8529 32.6892 56.2749 33.3006 56.5632 33.9772C56.8514 34.6538 57 35.3817 57 36.1172C57 36.8526 56.8514 37.5805 56.5632 38.2571C56.2749 38.9338 55.8529 39.5452 55.3226 40.0547L39.885 55.6446C39.5191 56.0189 39.0932 56.3294 38.625 56.5634V37.6659L53.4063 30.2634Z" fill="white"/>
<path d="M49.6998 26.3522L40.0398 16.6659C39.5284 16.1388 38.9163 15.7198 38.24 15.4336C37.5636 15.1474 36.8367 15 36.1023 15C35.3679 15 34.6409 15.1474 33.9645 15.4336C33.2882 15.7198 32.6762 16.1388 32.1648 16.6659L22.4785 26.3522L36.0498 33.1247L49.6998 26.3522Z" fill="white"/>
</svg>
